X: 1
T: Senile Man, The
M: 6/8
L: 1/8
R: jig
K: Bm
~d2B Bcd|BFF Bcd|ecc ~^Bcc|Acc edc|
~d2B Bcd|BFF Bcd|ecc def|edc B3:|
~f2f f^ga|b~ff fec|~dcd fgf|ece ~a2a|
~f2f f^ga|b~ff fec|dcd fgf|edc ~B2B:|
